X:0417
T:Presto.
M:2/4
L:1/8
Q:1/4=136
I: :: ::
Z:Jack Campin * www.campin.me.uk * 2009
K:D
dc/d/ Ad|ef     g2|fe/f/     ge|(3ced      (3cBA|\
dc/d/ Ad|ef     g2|f3/e//f// ge|  c3/B//c//  d2::
afdA    |BB/^A/ B2|gecA        |  AA/^G/     A2 |\
dc/d/ Ad|ef     g2|fe/f/     ge|  c2         d2:|
<end>
<start>
